X: 1592
T: the Banks of the Ilen   #2
R: hornpipe
%S: s:3 b:13(5+4+4)
%S: s:4 b:16(4+4+4+4)
B: O'Neill's 1850 #1592
O: F.O'Neill
Z: Michael D. Long, 9/30/98
Z: Michael Hogan
M: C|
L: 1/8
K: D
(AG) "^A"|: FDFA d2(fe) | d2(fd) ecAG | FDFA d2(fd) | ecAF [1,3 GBAG :|[2,4 G2 :|
"^B"\
|:(de) | f2(fd) g2(ge) | abag fdde | f2(fd) g2(ge) | abaf g2 ||
| (fg) | abaf gage | fgfd ecAG | FDFA defd | ecAF G2 :|
